icons/2_Variations/Nitrado fg.var.svg

<svg width="1024" height="1024" fill="none" xmlns="http://www.w3.org/2000/svg"><g clip-path="url(#a)"><path d="M512 1024c282.77 0 512-229.23 512-512S794.77 0 512 0 0 229.23 0 512s229.23 512 512 512Z" fill="#F9DE81"/><path d="M272.94 376v167.18a2.365 2.365 0 0 1-1.533 2.389 2.365 2.365 0 0 1-.997.141h-25.06c-2 0-3-.77-3.52-2.53l-33.5-119.07h-1.55v119.07a2.365 2.365 0 0 1-1.533 2.389 2.365 2.365 0 0 1-.997.141h-18.72a2.372 2.372 0 0 1-1.846-.685 2.353 2.353 0 0 1-.684-1.845V376a2.353 2.353 0 0 1 1.532-2.389c.319-.118.659-.166.998-.141h26.88c2 0 3 .77 3.52 2.53l31.96 119h1.27V376a2.353 2.353 0 0 1 1.532-2.389c.319-.118.659-.166.998-.141h18.71a2.363 2.363 0 0 1 1.852.681 2.35 2.35 0 0 1 .688 1.849Zm44-2.53h-22a2.372 2.372 0 0 0-1.846.685 2.353 2.353 0 0 0-.684 1.845v167.18a2.353 2.353 0 0 0 1.532 2.389c.319.118.659.166.998.141h22a2.365 2.365 0 0 0 2.389-1.533c.118-.318.166-.658.141-.997V376a2.37 2.37 0 0 0-.679-1.874 2.35 2.35 0 0 0-1.871-.686l.02.03Zm73.47 169.74V399.55a1.381 1.381 0 0 1 1.55-1.55h26.32a2.365 2.365 0 0 0 2.389-1.533c.118-.318.166-.658.141-.997V376a2.365 2.365 0 0 0-1.533-2.389 2.365 2.365 0 0 0-.997-.141h-82.85a2.372 2.372 0 0 0-1.846.685A2.353 2.353 0 0 0 332.9 376v19.42a2.353 2.353 0 0 0 1.532 2.389c.319.118.659.166.998.141h26.32a1.381 1.381 0 0 1 1.55 1.55v143.7a2.353 2.353 0 0 0 1.532 2.389c.319.118.659.166.998.141h22a2.37 2.37 0 0 0 1.874-.679 2.365 2.365 0 0 0 .686-1.871l.02.03Zm44 0V376a2.353 2.353 0 0 1 1.532-2.389c.319-.118.659-.166.998-.141h34.69c30.68 0 49.12 13.44 49.12 51.16 0 22.52-7.6 36.74-20.55 44.05l24.35 74.46c.49 1.27 0 2.53-1.27 2.53h-23.53v.07a2.602 2.602 0 0 1-2.82-1.76l-21-68.69H463a1.381 1.381 0 0 0-1.55 1.55v66.36a2.365 2.365 0 0 1-1.533 2.389 2.365 2.365 0 0 1-.997.141h-22a2.358 2.358 0 0 1-2.54-2.55l.03.03Zm27.09-93.46a1.381 1.381 0 0 0 1.55 1.55h8.87c15.2-.07 21.82-6.19 21.82-26.67 0-20.27-6.62-26.6-21.82-26.6H463a1.381 1.381 0 0 0-1.55 1.55l.05 50.17Zm73.75 93.46L572.52 376c.49-1.55 1.27-2.53 2.81-2.53h21.25a2.772 2.772 0 0 1 2.82 2.53l36.45 167.21a1.916 1.916 0 0 1-.312 1.809 1.91 1.91 0 0 1-1.688.721h-21.57c-1.76 0-2.53-1-2.81-2.53l-6.83-34.69h-34.2l-6.83 34.69c-.28 1.55-1 2.53-2.82 2.53h-21.53c-1.54-.03-2.26-1.01-2.04-2.56l.03.03Zm37.51-57.57h25.62l-12.21-64.14h-.77l-12.64 64.14ZM733.47 401c3 9.36 4.29 21 4.29 58.55s-1.27 49.12-4.29 58.55c-6.05 18.51-19.28 27.59-41.8 27.59H651.9a2.372 2.372 0 0 1-1.846-.685 2.353 2.353 0 0 1-.684-1.845V376a2.353 2.353 0 0 1 1.532-2.389c.319-.118.659-.166.998-.141h39.76c22.53-.03 35.76 9.12 41.81 27.53Zm-23.29 58.55c0-34.41-1.06-42.86-3-49.19-3-8.59-8.59-12.39-18.23-12.39H678a1.381 1.381 0 0 0-1.55 1.55V519.6c0 1 .49 1.48 1.55 1.48h10.91c9.64 0 15.2-3.8 18.23-12.39 2.05-6.33 3.03-14.69 3.03-49.12l.01-.02ZM841 459.5c0 47.92-.77 54-3.31 61.58C832.13 538 818.2 548 797.16 548c-21.25 0-35.19-9.85-40.82-26.88-2.53-7.6-3.31-13.65-3.31-61.58s.77-54 3.31-61.58C761.9 381 775.83 371 797.16 371c21 0 35 9.85 40.54 26.88 2.53 7.65 3.3 13.7 3.3 61.62Zm-27.66.07c0-47.36-.28-49.4-1.76-54.19-1.76-5.84-7.32-9.64-14.43-9.64-7.32 0-12.95 3.8-14.71 9.64-1.55 4.79-1.76 6.83-1.76 54.19s.28 49.4 1.76 54.19c1.76 5.84 7.32 9.64 14.71 9.64 7.11 0 12.67-3.8 14.43-9.64 1.55-4.76 1.76-6.82 1.76-54.19ZM510.66 725l141.46-119.68H369.91L510.66 725Z" fill="#56595B"/></g><defs><clipPath id="a"><path fill="#fff" d="M0 0h1024v1024H0z"/></clipPath></defs></svg>

<svg width="1024" height="1024" viewBox="0 0 1024 1024" fill="none" xmlns="http://www.w3.org/2000/svg">
<g clip-path="url(#clip0_3_188)">
<path d="M512 1024C794.77 1024 1024 794.77 1024 512C1024 229.23 794.77 0 512 0C229.23 0 0 229.23 0 512C0 794.77 229.23 1024 512 1024Z" fill="#F9DE81"/>
<path d="M272.94 376V543.18C272.965 543.519 272.917 543.859 272.799 544.177C272.681 544.496 272.495 544.785 272.255 545.025C272.015 545.266 271.726 545.451 271.407 545.569C271.089 545.687 270.749 545.735 270.41 545.71H245.35C243.35 545.71 242.35 544.94 241.83 543.18L208.33 424.11H206.78V543.18C206.805 543.519 206.757 543.859 206.639 544.177C206.521 544.496 206.335 544.785 206.095 545.025C205.855 545.266 205.566 545.451 205.247 545.569C204.929 545.687 204.589 545.735 204.25 545.71H185.53C185.191 545.735 184.851 545.687 184.532 545.569C184.214 545.451 183.925 545.266 183.684 545.025C183.444 544.785 183.259 544.496 183.141 544.177C183.022 543.859 182.974 543.519 183 543.18V376C182.974 375.661 183.022 375.321 183.141 375.003C183.259 374.684 183.444 374.395 183.684 374.155C183.925 373.914 184.214 373.729 184.532 373.611C184.851 373.493 185.191 373.445 185.53 373.47H212.41C214.41 373.47 215.41 374.24 215.93 376L247.89 495H249.16V376C249.134 375.661 249.182 375.321 249.301 375.003C249.419 374.684 249.604 374.395 249.844 374.155C250.085 373.914 250.374 373.729 250.692 373.611C251.011 373.493 251.351 373.445 251.69 373.47H270.4C270.739 373.443 271.081 373.49 271.4 373.607C271.72 373.725 272.011 373.91 272.252 374.151C272.493 374.391 272.68 374.681 272.798 375C272.917 375.319 272.965 375.66 272.94 376ZM316.94 373.47H294.94C294.601 373.445 294.261 373.493 293.942 373.611C293.624 373.729 293.335 373.914 293.094 374.155C292.854 374.395 292.669 374.684 292.551 375.003C292.432 375.321 292.384 375.661 292.41 376V543.18C292.384 543.519 292.432 543.859 292.551 544.177C292.669 544.496 292.854 544.785 293.094 545.025C293.335 545.266 293.624 545.451 293.942 545.569C294.261 545.687 294.601 545.735 294.94 545.71H316.94C317.279 545.735 317.619 545.687 317.937 545.569C318.256 545.451 318.545 545.266 318.785 545.025C319.025 544.785 319.211 544.496 319.329 544.177C319.447 543.859 319.495 543.519 319.47 543.18V376C319.5 375.657 319.455 375.312 319.338 374.988C319.221 374.664 319.034 374.37 318.791 374.126C318.548 373.882 318.255 373.694 317.931 373.576C317.608 373.457 317.263 373.411 316.92 373.44L316.94 373.47ZM390.41 543.21V399.55C390.382 399.34 390.403 399.126 390.471 398.925C390.539 398.724 390.652 398.542 390.802 398.392C390.952 398.242 391.134 398.129 391.335 398.061C391.536 397.993 391.75 397.972 391.96 398H418.28C418.619 398.025 418.959 397.977 419.277 397.859C419.596 397.741 419.885 397.556 420.125 397.315C420.365 397.075 420.551 396.786 420.669 396.467C420.787 396.149 420.835 395.809 420.81 395.47V376C420.835 375.661 420.787 375.321 420.669 375.003C420.551 374.684 420.365 374.395 420.125 374.155C419.885 373.914 419.596 373.729 419.277 373.611C418.959 373.493 418.619 373.445 418.28 373.47H335.43C335.091 373.445 334.751 373.493 334.432 373.611C334.114 373.729 333.825 373.914 333.584 374.155C333.344 374.395 333.159 374.684 333.041 375.003C332.922 375.321 332.874 375.661 332.9 376V395.42C332.874 395.759 332.922 396.099 333.041 396.417C333.159 396.736 333.344 397.025 333.584 397.265C333.825 397.506 334.114 397.691 334.432 397.809C334.751 397.927 335.091 397.975 335.43 397.95H361.75C361.96 397.922 362.174 397.943 362.375 398.011C362.575 398.079 362.758 398.192 362.908 398.342C363.058 398.492 363.171 398.674 363.239 398.875C363.307 399.076 363.328 399.29 363.3 399.5V543.2C363.274 543.539 363.322 543.879 363.441 544.197C363.559 544.516 363.744 544.805 363.984 545.045C364.225 545.286 364.514 545.471 364.832 545.589C365.151 545.707 365.491 545.755 365.83 545.73H387.83C388.173 545.76 388.518 545.715 388.842 545.598C389.166 545.481 389.46 545.294 389.704 545.051C389.948 544.808 390.135 544.515 390.254 544.192C390.372 543.868 390.419 543.523 390.39 543.18L390.41 543.21ZM434.41 543.21V376C434.384 375.661 434.432 375.321 434.551 375.003C434.669 374.684 434.854 374.395 435.094 374.155C435.335 373.914 435.624 373.729 435.942 373.611C436.261 373.493 436.601 373.445 436.94 373.47H471.63C502.31 373.47 520.75 386.91 520.75 424.63C520.75 447.15 513.15 461.37 500.2 468.68L524.55 543.14C525.04 544.41 524.55 545.67 523.28 545.67H499.75V545.74C499.148 545.822 498.537 545.691 498.022 545.37C497.507 545.048 497.12 544.556 496.93 543.98L475.93 475.29H463C462.79 475.262 462.576 475.283 462.375 475.351C462.174 475.419 461.992 475.532 461.842 475.682C461.692 475.832 461.579 476.014 461.511 476.215C461.443 476.416 461.422 476.63 461.45 476.84V543.2C461.475 543.539 461.427 543.879 461.309 544.197C461.191 544.516 461.005 544.805 460.765 545.045C460.525 545.286 460.236 545.471 459.917 545.589C459.599 545.707 459.259 545.755 458.92 545.73H436.92C436.578 545.757 436.235 545.71 435.914 545.591C435.593 545.473 435.301 545.286 435.059 545.043C434.818 544.8 434.632 544.508 434.514 544.186C434.397 543.865 434.351 543.521 434.38 543.18L434.41 543.21ZM461.5 449.75C461.472 449.96 461.493 450.174 461.561 450.375C461.629 450.576 461.742 450.758 461.892 450.908C462.042 451.058 462.224 451.171 462.425 451.239C462.626 451.307 462.84 451.328 463.05 451.3H471.92C487.12 451.23 493.74 445.11 493.74 424.63C493.74 404.36 487.12 398.03 471.92 398.03H463C462.79 398.002 462.576 398.023 462.375 398.091C462.174 398.159 461.992 398.272 461.842 398.422C461.692 398.572 461.579 398.754 461.511 398.955C461.443 399.156 461.422 399.37 461.45 399.58L461.5 449.75ZM535.25 543.21L572.52 376C573.01 374.45 573.79 373.47 575.33 373.47H596.58C597.283 373.455 597.966 373.708 598.49 374.178C599.014 374.647 599.339 375.299 599.4 376L635.85 543.21C635.953 543.514 635.979 543.838 635.924 544.154C635.87 544.47 635.737 544.768 635.538 545.019C635.34 545.271 635.081 545.469 634.786 545.595C634.491 545.72 634.169 545.77 633.85 545.74H612.28C610.52 545.74 609.75 544.74 609.47 543.21L602.64 508.52H568.44L561.61 543.21C561.33 544.76 560.61 545.74 558.79 545.74H537.26C535.72 545.71 535 544.73 535.22 543.18L535.25 543.21ZM572.76 485.64H598.38L586.17 421.5H585.4L572.76 485.64ZM733.47 401C736.47 410.36 737.76 422 737.76 459.55C737.76 497.1 736.49 508.67 733.47 518.1C727.42 536.61 714.19 545.69 691.67 545.69H651.9C651.561 545.715 651.221 545.667 650.902 545.549C650.584 545.431 650.295 545.246 650.054 545.005C649.814 544.765 649.629 544.476 649.511 544.157C649.392 543.839 649.344 543.499 649.37 543.16V376C649.344 375.661 649.392 375.321 649.511 375.003C649.629 374.684 649.814 374.395 650.054 374.155C650.295 373.914 650.584 373.729 650.902 373.611C651.221 373.493 651.561 373.445 651.9 373.47H691.66C714.19 373.44 727.42 382.59 733.47 401ZM710.18 459.55C710.18 425.14 709.12 416.69 707.18 410.36C704.18 401.77 698.59 397.97 688.95 397.97H678C677.79 397.942 677.576 397.963 677.375 398.031C677.174 398.099 676.992 398.212 676.842 398.362C676.692 398.512 676.579 398.694 676.511 398.895C676.443 399.096 676.422 399.31 676.45 399.52V519.6C676.45 520.6 676.94 521.08 678 521.08H688.91C698.55 521.08 704.11 517.28 707.14 508.69C709.19 502.36 710.17 494 710.17 459.57L710.18 459.55ZM841 459.5C841 507.42 840.23 513.5 837.69 521.08C832.13 538 818.2 548 797.16 548C775.91 548 761.97 538.15 756.34 521.12C753.81 513.52 753.03 507.47 753.03 459.54C753.03 411.61 753.8 405.54 756.34 397.96C761.9 381 775.83 371 797.16 371C818.16 371 832.16 380.85 837.7 397.88C840.23 405.53 841 411.58 841 459.5ZM813.34 459.57C813.34 412.21 813.06 410.17 811.58 405.38C809.82 399.54 804.26 395.74 797.15 395.74C789.83 395.74 784.2 399.54 782.44 405.38C780.89 410.17 780.68 412.21 780.68 459.57C780.68 506.93 780.96 508.97 782.44 513.76C784.2 519.6 789.76 523.4 797.15 523.4C804.26 523.4 809.82 519.6 811.58 513.76C813.13 509 813.34 506.94 813.34 459.57ZM510.66 725L652.12 605.32H369.91L510.66 725Z" fill="#56595B"/>
</g>
<defs>
<clipPath id="clip0_3_188">
<rect width="1024" height="1024" fill="white"/>
</clipPath>
</defs>
</svg>
